Candle/ch1.svg

<svg xmlns="http://www.w3.org/2000/svg" viewBox="0 0 1200 800" preserveAspectRatio="none" width="1200" height="800">
 <title>
  ROOT canvas
 </title>
 <path d="M0,0H1200V800H0Z" style="fill: none;"></path>
 <g>
  <g transform="translate(120,80)">
   <title></title>
   <path d="M0,0H960V640H0Z" style="fill: white; stroke: black; stroke-width: 1;"></path>
   <svg x="0" y="0" overflow="hidden" width="960" height="640" viewBox="0 0 960 640">
    <g>
     <path d="M444,611h-96v10h96zM615,595h-117v10h117zM640,579h-280v10h280zM493,563h-115v10h115zM518,547h-143v10h143zM614,531h-225v10h225zM554,515h-173v10h173zM549,499h-140v10h140zM549,483h-152v10h152zM575,467h-165v10h165zM559,451h-162v10h162zM550,435h-153v10h153zM564,419h-165v10h165zM557,403h-166v10h166zM564,387h-161v10h161zM564,371h-174v10h174zM566,355h-168v10h168zM561,339h-163v10h163zM567,323h-165v10h165zM562,307h-157v10h157zM556,291h-156v10h156zM564,275h-161v10h161zM553,259h-155v10h155zM565,243h-167v10h167zM571,227h-177v10h177zM565,211h-170v10h170zM565,195h-162v10h162zM565,179h-165v10h165zM562,163h-153v10h153zM579,147h-177v10h177zM563,131h-161v10h161zM572,115h-175v10h175zM582,99h-187v10h187zM555,83h-225v10h225zM521,67h-131v10h131zM516,51h-120v10h120zM525,35h-111v10h111zM210,19h-12v10h12zM282,3h-12v10h12z" style="stroke: #00009a; stroke-width: 1; fill: none;"></path>
     <path d="M396,611v10M456,611v10M336,611v10M606,595v10M624,595v10M480,595v10M492,579v10M768,579v10M264,579v10M425,563v10M624,563v10M168,563v10M444,547v10M648,547v10M192,547v10M492,531v10M888,531v10M168,531v10M474,515v10M744,515v10M144,515v10M482,499v10M768,499v10M144,499v10M469,483v10M816,483v10M192,483v10M494,467v10M864,467v10M72,467v10M477,451v10M864,451v10M120,451v10M472,435v10M888,435v10M96,435v10M478,419v10M864,419v10M120,419v10M475,403v10M840,403v10M72,403v10M482,387v10M888,387v10M48,387v10M481,371v10M888,371v10M72,371v10M481,355v10M960,355v10M0,355v10M479,339v10M912,339v10M72,339v10M486,323v10M864,323v10M96,323v10M484,307v10M840,307v10M96,307v10M480,291v10M888,291v10M72,291v10M482,275v10M840,275v10M24,275v10M474,259v10M912,259v10M96,259v10M481,243v10M888,243v10M120,243v10M482,227v10M864,227v10M120,227v10M477,211v10M864,211v10M168,211v10M484,195v10M816,195v10M96,195v10M488,179v10M768,179v10M96,179v10M480,163v10M840,163v10M216,163v10M492,147v10M816,147v10M168,147v10M474,131v10M816,131v10M144,131v10M492,115v10M816,115v10M168,115v10M468,99v10M864,99v10M144,99v10M450,83v10M696,83v10M216,83v10M486,67v10M696,67v10M288,67v10M432,51v10M816,51v10M360,51v10M510,35v10M552,35v10M336,35v10M204,19v10M216,19v10M192,19v10M276,3v10M288,3v10M264,3v10" style="stroke: #00009a; stroke-width: 1; fill: none;"></path>
     <path d="M444,616h12M348,616h-12M615,600h9M498,600h-18M640,584h128M360,584h-96M493,568h131M378,568h-210M518,552h130M375,552h-183M614,536h274M389,536h-221M554,520h190M381,520h-237M549,504h219M409,504h-265M549,488h267M397,488h-205M575,472h289M410,472h-338M559,456h305M397,456h-277M550,440h338M397,440h-301M564,424h300M399,424h-279M557,408h283M391,408h-319M564,392h324M403,392h-355M564,376h324M390,376h-318M566,360h394M398,360h-398M561,344h351M398,344h-326M567,328h297M402,328h-306M562,312h278M405,312h-309M556,296h332M400,296h-328M564,280h276M403,280h-379M553,264h359M398,264h-302M565,248h323M398,248h-278M571,232h293M394,232h-274M565,216h299M395,216h-227M565,200h251M403,200h-307M565,184h203M400,184h-304M562,168h278M409,168h-193M579,152h237M402,152h-234M563,136h253M402,136h-258M572,120h244M397,120h-229M582,104h282M395,104h-251M555,88h141M330,88h-114M521,72h175M390,72h-102M516,56h300M396,56h-36M525,40h27M414,40h-78M210,24h6M198,24h-6M282,8h6M270,8h-6" style="stroke: #00009a; stroke-width: 1; stroke-dasharray: 3,3; fill: none;"></path>
     <path d="M392,616a4,4,0,1,0,8,0a4,4,0,1,0,-8,0zM568,600a4,4,0,1,0,8,0a4,4,0,1,0,-8,0zM493,584a4,4,0,1,0,8,0a4,4,0,1,0,-8,0zM431,568a4,4,0,1,0,8,0a4,4,0,1,0,-8,0zM439,552a4,4,0,1,0,8,0a4,4,0,1,0,-8,0zM490,536a4,4,0,1,0,8,0a4,4,0,1,0,-8,0zM463,520a4,4,0,1,0,8,0a4,4,0,1,0,-8,0zM471,504a4,4,0,1,0,8,0a4,4,0,1,0,-8,0zM470,488a4,4,0,1,0,8,0a4,4,0,1,0,-8,0zM489,472a4,4,0,1,0,8,0a4,4,0,1,0,-8,0zM473,456a4,4,0,1,0,8,0a4,4,0,1,0,-8,0zM471,440a4,4,0,1,0,8,0a4,4,0,1,0,-8,0zM475,424a4,4,0,1,0,8,0a4,4,0,1,0,-8,0zM471,408a4,4,0,1,0,8,0a4,4,0,1,0,-8,0zM478,392a4,4,0,1,0,8,0a4,4,0,1,0,-8,0zM474,376a4,4,0,1,0,8,0a4,4,0,1,0,-8,0zM478,360a4,4,0,1,0,8,0a4,4,0,1,0,-8,0zM475,344a4,4,0,1,0,8,0a4,4,0,1,0,-8,0zM480,328a4,4,0,1,0,8,0a4,4,0,1,0,-8,0zM480,312a4,4,0,1,0,8,0a4,4,0,1,0,-8,0zM475,296a4,4,0,1,0,8,0a4,4,0,1,0,-8,0zM477,280a4,4,0,1,0,8,0a4,4,0,1,0,-8,0zM473,264a4,4,0,1,0,8,0a4,4,0,1,0,-8,0zM477,248a4,4,0,1,0,8,0a4,4,0,1,0,-8,0zM477,232a4,4,0,1,0,8,0a4,4,0,1,0,-8,0zM474,216a4,4,0,1,0,8,0a4,4,0,1,0,-8,0zM479,200a4,4,0,1,0,8,0a4,4,0,1,0,-8,0zM477,184a4,4,0,1,0,8,0a4,4,0,1,0,-8,0zM483,168a4,4,0,1,0,8,0a4,4,0,1,0,-8,0zM487,152a4,4,0,1,0,8,0a4,4,0,1,0,-8,0zM479,136a4,4,0,1,0,8,0a4,4,0,1,0,-8,0zM491,120a4,4,0,1,0,8,0a4,4,0,1,0,-8,0zM469,104a4,4,0,1,0,8,0a4,4,0,1,0,-8,0zM451,88a4,4,0,1,0,8,0a4,4,0,1,0,-8,0zM464,72a4,4,0,1,0,8,0a4,4,0,1,0,-8,0zM480,56a4,4,0,1,0,8,0a4,4,0,1,0,-8,0zM464,40a4,4,0,1,0,8,0a4,4,0,1,0,-8,0zM200,24a4,4,0,1,0,8,0a4,4,0,1,0,-8,0zM272,8a4,4,0,1,0,8,0a4,4,0,1,0,-8,0z" style="stroke: #00009a; fill: none;"></path>
    </g>
   </svg>
   <g>
    <g transform="translate(0,640)">
     <path d="M0,0h960" style="stroke: black; stroke-width: 1;"></path>
     <path d="M0,-24v24m24,-12v12m24,-12v12m24,-12v12m24,-12v12m24,-24v24m24,-12v12m24,-12v12m24,-12v12m24,-12v12m24,-24v24m24,-12v12m24,-12v12m24,-12v12m24,-12v12m24,-24v24m24,-12v12m24,-12v12m24,-12v12m24,-12v12m24,-24v24m24,-12v12m24,-12v12m24,-12v12m24,-12v12m24,-24v24m24,-12v12m24,-12v12m24,-12v12m24,-12v12m24,-24v24m24,-12v12m24,-12v12m24,-12v12m24,-12v12m24,-24v24m24,-12v12m24,-12v12m24,-12v12m24,-12v12m24,-24v24" style="stroke: black; stroke-width: 1;"></path>
     <g font-family="Arial" font-size="28" space="preserve">
      <text fill="black" text-anchor="middle" dy=".8em" transform="translate(0,6)">
       -4
      </text>
      <text fill="black" text-anchor="middle" dy=".8em" transform="translate(120,6)">
       -3
      </text>
      <text fill="black" text-anchor="middle" dy=".8em" transform="translate(240,6)">
       -2
      </text>
      <text fill="black" text-anchor="middle" dy=".8em" transform="translate(360,6)">
       -1
      </text>
      <text fill="black" text-anchor="middle" dy=".8em" transform="translate(480,6)">
       0
      </text>
      <text fill="black" text-anchor="middle" dy=".8em" transform="translate(600,6)">
       1
      </text>
      <text fill="black" text-anchor="middle" dy=".8em" transform="translate(720,6)">
       2
      </text>
      <text fill="black" text-anchor="middle" dy=".8em" transform="translate(840,6)">
       3
      </text>
      <text fill="black" text-anchor="middle" dy=".8em" transform="translate(960,6)">
       4
      </text>
     </g>
    </g>
    <g>
     <path d="M0,0v640" style="stroke: black; stroke-width: 1;"></path>
     <path d="M36,640h-36m18,-16h-18m18,-16h-18m18,-16h-18m18,-16h-18m36,-16h-36m18,-16h-18m18,-16h-18m18,-16h-18m18,-16h-18m36,-16h-36m18,-16h-18m18,-16h-18m18,-16h-18m18,-16h-18m36,-16h-36m18,-16h-18m18,-16h-18m18,-16h-18m18,-16h-18m36,-16h-36m18,-16h-18m18,-16h-18m18,-16h-18m18,-16h-18m36,-16h-36m18,-16h-18m18,-16h-18m18,-16h-18m18,-16h-18m36,-16h-36m18,-16h-18m18,-16h-18m18,-16h-18m18,-16h-18m36,-16h-36m18,-16h-18m18,-16h-18m18,-16h-18m18,-16h-18m36,-16h-36" style="stroke: black; stroke-width: 1;"></path>
     <g font-family="Arial" font-size="28" space="preserve">
      <text fill="black" text-anchor="end" dy=".4em" transform="translate(-4,640)">
       -4
      </text>
      <text fill="black" text-anchor="end" dy=".4em" transform="translate(-4,560)">
       -3
      </text>
      <text fill="black" text-anchor="end" dy=".4em" transform="translate(-4,480)">
       -2
      </text>
      <text fill="black" text-anchor="end" dy=".4em" transform="translate(-4,400)">
       -1
      </text>
      <text fill="black" text-anchor="end" dy=".4em" transform="translate(-4,320)">
       0
      </text>
      <text fill="black" text-anchor="end" dy=".4em" transform="translate(-4,240)">
       1
      </text>
      <text fill="black" text-anchor="end" dy=".4em" transform="translate(-4,160)">
       2
      </text>
      <text fill="black" text-anchor="end" dy=".4em" transform="translate(-4,80)">
       3
      </text>
      <text fill="black" text-anchor="end" dy=".4em" transform="translate(-4)">
       4
      </text>
     </g>
    </g>
   </g>
  </g>
  <g transform="translate(120,4)" font-family="Arial" font-size="40" space="preserve">
   <path d="M0,0H960V53H0Z" style="fill: none;"></path>
   <text fill="black" text-anchor="middle" dy=".8em" transform="translate(480)">
    py vs px
   </text>
  </g>
  <g transform="translate(936,52)" font-family="Arial" font-size="20" space="preserve">
   <path d="M0,0H240V212H0Z" style="fill: white; stroke: black; stroke-width: 1;"></path>
   <text fill="black" text-anchor="middle" dy=".4em" transform="translate(120,18)">
    hpxpy
   </text>
   <text fill="black" text-anchor="start" dy=".4em" transform="translate(12,53)">
    Entries
   </text>
   <text fill="black" text-anchor="end" dy=".4em" transform="translate(228,53)">
    25000
   </text>
   <text fill="black" text-anchor="start" dy=".4em" transform="translate(12,88)">
    Mean x
   </text>
   <text fill="black" text-anchor="end" dy=".4em" transform="translate(228,88)">
    0.003181
   </text>
   <text fill="black" text-anchor="start" dy=".4em" transform="translate(12,124)">
    Mean y
   </text>
   <text fill="black" text-anchor="end" dy=".4em" transform="translate(228,124)">
    0.009441
   </text>
   <text fill="black" text-anchor="start" dy=".4em" transform="translate(12,159)">
    Std Dev x
   </text>
   <text fill="black" text-anchor="end" dy=".4em" transform="translate(228,159)">
    1.004
   </text>
   <text fill="black" text-anchor="start" dy=".4em" transform="translate(12,194)">
    Std Dev y
   </text>
   <text fill="black" text-anchor="end" dy=".4em" transform="translate(228,194)">
    0.9972
   </text>
   <path d="M0,35h240" style="stroke: black; stroke-width: 1;"></path>
  </g>
 </g>
</svg>

<svg xmlns="http://www.w3.org/2000/svg" viewBox="0 0 1200 800" preserveAspectRatio="none" width="1200" height="800">
 <title>
  ROOT canvas
 </title>
 <path d="M0,0H1200V800H0Z" style="fill: none;"></path>
 <g>
  <g transform="translate(120,80)">
   <title></title>
   <path d="M0,0H960V640H0Z" style="fill: white; stroke: black; stroke-width: 1;"></path>
   <svg x="0" y="0" overflow="hidden" width="960" height="640" viewBox="0 0 960 640">
    <g>
     <path d="M444,611H348V621H444ZM615,595H498V605H615ZM640,579H360V589H640ZM493,563H378V573H493ZM518,547H375V557H518ZM614,531H389V541H614ZM554,515H381V525H554ZM549,499H409V509H549ZM549,483H397V493H549ZM575,467H410V477H575ZM559,451H397V461H559ZM550,435H397V445H550ZM564,419H399V429H564ZM557,403H391V413H557ZM564,387H403V397H564ZM564,371H390V381H564ZM566,355H398V365H566ZM561,339H398V349H561ZM567,323H402V333H567ZM562,307H405V317H562ZM556,291H400V301H556ZM564,275H403V285H564ZM553,259H398V269H553ZM565,243H398V253H565ZM571,227H394V237H571ZM565,211H395V221H565ZM565,195H403V205H565ZM565,179H400V189H565ZM562,163H409V173H562ZM579,147H402V157H579ZM563,131H402V141H563ZM572,115H397V125H572ZM582,99H395V109H582ZM555,83H330V93H555ZM521,67H390V77H521ZM516,51H396V61H516ZM525,35H414V45H525ZM210,19H198V29H210ZM282,3H270V13H282Z" style="stroke: #00009a; stroke-width: 1; fill: none;"></path>
     <path d="M396,611V621M456,611V621M336,611V621M606,595V605M624,595V605M480,595V605M492,579V589M768,579V589M264,579V589M425,563V573M624,563V573M168,563V573M444,547V557M648,547V557M192,547V557M492,531V541M888,531V541M168,531V541M474,515V525M744,515V525M144,515V525M482,499V509M768,499V509M144,499V509M469,483V493M816,483V493M192,483V493M494,467V477M864,467V477M72,467V477M477,451V461M864,451V461M120,451V461M472,435V445M888,435V445M96,435V445M478,419V429M864,419V429M120,419V429M475,403V413M840,403V413M72,403V413M482,387V397M888,387V397M48,387V397M481,371V381M888,371V381M72,371V381M481,355V365M960,355V365M0,355V365M479,339V349M912,339V349M72,339V349M486,323V333M864,323V333M96,323V333M484,307V317M840,307V317M96,307V317M480,291V301M888,291V301M72,291V301M482,275V285M840,275V285M24,275V285M474,259V269M912,259V269M96,259V269M481,243V253M888,243V253M120,243V253M482,227V237M864,227V237M120,227V237M477,211V221M864,211V221M168,211V221M484,195V205M816,195V205M96,195V205M488,179V189M768,179V189M96,179V189M480,163V173M840,163V173M216,163V173M492,147V157M816,147V157M168,147V157M474,131V141M816,131V141M144,131V141M492,115V125M816,115V125M168,115V125M468,99V109M864,99V109M144,99V109M450,83V93M696,83V93M216,83V93M486,67V77M696,67V77M288,67V77M432,51V61M816,51V61M360,51V61M510,35V45M552,35V45M336,35V45M204,19V29M216,19V29M192,19V29M276,3V13M288,3V13M264,3V13" style="stroke: #00009a; stroke-width: 1; fill: none;"></path>
     <path d="M444,616H456M348,616H336M615,600H624M498,600H480M640,584H768M360,584H264M493,568H624M378,568H168M518,552H648M375,552H192M614,536H888M389,536H168M554,520H744M381,520H144M549,504H768M409,504H144M549,488H816M397,488H192M575,472H864M410,472H72M559,456H864M397,456H120M550,440H888M397,440H96M564,424H864M399,424H120M557,408H840M391,408H72M564,392H888M403,392H48M564,376H888M390,376H72M566,360H960M398,360H0M561,344H912M398,344H72M567,328H864M402,328H96M562,312H840M405,312H96M556,296H888M400,296H72M564,280H840M403,280H24M553,264H912M398,264H96M565,248H888M398,248H120M571,232H864M394,232H120M565,216H864M395,216H168M565,200H816M403,200H96M565,184H768M400,184H96M562,168H840M409,168H216M579,152H816M402,152H168M563,136H816M402,136H144M572,120H816M397,120H168M582,104H864M395,104H144M555,88H696M330,88H216M521,72H696M390,72H288M516,56H816M396,56H360M525,40H552M414,40H336M210,24H216M198,24H192M282,8H288M270,8H264" style="stroke: #00009a; stroke-width: 1; stroke-dasharray: 3,3; fill: none;"></path>
     <path d="M392,616a4,4,0,1,0,8,0a4,4,0,1,0,-8,0zM568,600a4,4,0,1,0,8,0a4,4,0,1,0,-8,0zM493,584a4,4,0,1,0,8,0a4,4,0,1,0,-8,0zM431,568a4,4,0,1,0,8,0a4,4,0,1,0,-8,0zM439,552a4,4,0,1,0,8,0a4,4,0,1,0,-8,0zM490,536a4,4,0,1,0,8,0a4,4,0,1,0,-8,0zM463,520a4,4,0,1,0,8,0a4,4,0,1,0,-8,0zM471,504a4,4,0,1,0,8,0a4,4,0,1,0,-8,0zM470,488a4,4,0,1,0,8,0a4,4,0,1,0,-8,0zM489,472a4,4,0,1,0,8,0a4,4,0,1,0,-8,0zM473,456a4,4,0,1,0,8,0a4,4,0,1,0,-8,0zM471,440a4,4,0,1,0,8,0a4,4,0,1,0,-8,0zM475,424a4,4,0,1,0,8,0a4,4,0,1,0,-8,0zM471,408a4,4,0,1,0,8,0a4,4,0,1,0,-8,0zM478,392a4,4,0,1,0,8,0a4,4,0,1,0,-8,0zM474,376a4,4,0,1,0,8,0a4,4,0,1,0,-8,0zM478,360a4,4,0,1,0,8,0a4,4,0,1,0,-8,0zM475,344a4,4,0,1,0,8,0a4,4,0,1,0,-8,0zM480,328a4,4,0,1,0,8,0a4,4,0,1,0,-8,0zM480,312a4,4,0,1,0,8,0a4,4,0,1,0,-8,0zM475,296a4,4,0,1,0,8,0a4,4,0,1,0,-8,0zM477,280a4,4,0,1,0,8,0a4,4,0,1,0,-8,0zM473,264a4,4,0,1,0,8,0a4,4,0,1,0,-8,0zM477,248a4,4,0,1,0,8,0a4,4,0,1,0,-8,0zM477,232a4,4,0,1,0,8,0a4,4,0,1,0,-8,0zM474,216a4,4,0,1,0,8,0a4,4,0,1,0,-8,0zM479,200a4,4,0,1,0,8,0a4,4,0,1,0,-8,0zM477,184a4,4,0,1,0,8,0a4,4,0,1,0,-8,0zM483,168a4,4,0,1,0,8,0a4,4,0,1,0,-8,0zM487,152a4,4,0,1,0,8,0a4,4,0,1,0,-8,0zM479,136a4,4,0,1,0,8,0a4,4,0,1,0,-8,0zM491,120a4,4,0,1,0,8,0a4,4,0,1,0,-8,0zM469,104a4,4,0,1,0,8,0a4,4,0,1,0,-8,0zM451,88a4,4,0,1,0,8,0a4,4,0,1,0,-8,0zM464,72a4,4,0,1,0,8,0a4,4,0,1,0,-8,0zM480,56a4,4,0,1,0,8,0a4,4,0,1,0,-8,0zM464,40a4,4,0,1,0,8,0a4,4,0,1,0,-8,0zM200,24a4,4,0,1,0,8,0a4,4,0,1,0,-8,0zM272,8a4,4,0,1,0,8,0a4,4,0,1,0,-8,0z" style="stroke: #00009a; fill: none;"></path>
    </g>
   </svg>
   <g>
    <g transform="translate(0,640)">
     <path d="M0,0h960" style="stroke: black; stroke-width: 1;"></path>
     <path d="M0,-24v24m24,-12v12m24,-12v12m24,-12v12m24,-12v12m24,-24v24m24,-12v12m24,-12v12m24,-12v12m24,-12v12m24,-24v24m24,-12v12m24,-12v12m24,-12v12m24,-12v12m24,-24v24m24,-12v12m24,-12v12m24,-12v12m24,-12v12m24,-24v24m24,-12v12m24,-12v12m24,-12v12m24,-12v12m24,-24v24m24,-12v12m24,-12v12m24,-12v12m24,-12v12m24,-24v24m24,-12v12m24,-12v12m24,-12v12m24,-12v12m24,-24v24m24,-12v12m24,-12v12m24,-12v12m24,-12v12m24,-24v24" style="stroke: black; stroke-width: 1;"></path>
     <g font-family="Arial" font-size="28" space="preserve">
      <text fill="black" text-anchor="middle" dy=".8em" transform="translate(0,6)">
       -4
      </text>
      <text fill="black" text-anchor="middle" dy=".8em" transform="translate(120,6)">
       -3
      </text>
      <text fill="black" text-anchor="middle" dy=".8em" transform="translate(240,6)">
       -2
      </text>
      <text fill="black" text-anchor="middle" dy=".8em" transform="translate(360,6)">
       -1
      </text>
      <text fill="black" text-anchor="middle" dy=".8em" transform="translate(480,6)">
       0
      </text>
      <text fill="black" text-anchor="middle" dy=".8em" transform="translate(600,6)">
       1
      </text>
      <text fill="black" text-anchor="middle" dy=".8em" transform="translate(720,6)">
       2
      </text>
      <text fill="black" text-anchor="middle" dy=".8em" transform="translate(840,6)">
       3
      </text>
      <text fill="black" text-anchor="middle" dy=".8em" transform="translate(960,6)">
       4
      </text>
     </g>
    </g>
    <g>
     <path d="M0,0v640" style="stroke: black; stroke-width: 1;"></path>
     <path d="M36,640h-36m18,-16h-18m18,-16h-18m18,-16h-18m18,-16h-18m36,-16h-36m18,-16h-18m18,-16h-18m18,-16h-18m18,-16h-18m36,-16h-36m18,-16h-18m18,-16h-18m18,-16h-18m18,-16h-18m36,-16h-36m18,-16h-18m18,-16h-18m18,-16h-18m18,-16h-18m36,-16h-36m18,-16h-18m18,-16h-18m18,-16h-18m18,-16h-18m36,-16h-36m18,-16h-18m18,-16h-18m18,-16h-18m18,-16h-18m36,-16h-36m18,-16h-18m18,-16h-18m18,-16h-18m18,-16h-18m36,-16h-36m18,-16h-18m18,-16h-18m18,-16h-18m18,-16h-18m36,-16h-36" style="stroke: black; stroke-width: 1;"></path>
     <g font-family="Arial" font-size="28" space="preserve">
      <text fill="black" text-anchor="end" dy=".4em" transform="translate(-4,640)">
       -4
      </text>
      <text fill="black" text-anchor="end" dy=".4em" transform="translate(-4,560)">
       -3
      </text>
      <text fill="black" text-anchor="end" dy=".4em" transform="translate(-4,480)">
       -2
      </text>
      <text fill="black" text-anchor="end" dy=".4em" transform="translate(-4,400)">
       -1
      </text>
      <text fill="black" text-anchor="end" dy=".4em" transform="translate(-4,320)">
       0
      </text>
      <text fill="black" text-anchor="end" dy=".4em" transform="translate(-4,240)">
       1
      </text>
      <text fill="black" text-anchor="end" dy=".4em" transform="translate(-4,160)">
       2
      </text>
      <text fill="black" text-anchor="end" dy=".4em" transform="translate(-4,80)">
       3
      </text>
      <text fill="black" text-anchor="end" dy=".4em" transform="translate(-4)">
       4
      </text>
     </g>
    </g>
   </g>
  </g>
  <g transform="translate(120,4)" font-family="Arial" font-size="40" space="preserve">
   <path d="M0,0H960V53H0Z" style="fill: none;"></path>
   <text fill="black" text-anchor="middle" dy=".8em" transform="translate(480)">
    py vs px
   </text>
  </g>
  <g transform="translate(936,52)" font-family="Arial" font-size="20" space="preserve">
   <path d="M0,0H240V212H0Z" style="fill: white; stroke: black; stroke-width: 1;"></path>
   <text fill="black" text-anchor="middle" dy=".4em" transform="translate(120,18)">
    hpxpy
   </text>
   <text fill="black" text-anchor="start" dy=".4em" transform="translate(12,53)">
    Entries
   </text>
   <text fill="black" text-anchor="end" dy=".4em" transform="translate(228,53)">
    25000
   </text>
   <text fill="black" text-anchor="start" dy=".4em" transform="translate(12,88)">
    Mean x
   </text>
   <text fill="black" text-anchor="end" dy=".4em" transform="translate(228,88)">
    0.003181
   </text>
   <text fill="black" text-anchor="start" dy=".4em" transform="translate(12,124)">
    Mean y
   </text>
   <text fill="black" text-anchor="end" dy=".4em" transform="translate(228,124)">
    0.009441
   </text>
   <text fill="black" text-anchor="start" dy=".4em" transform="translate(12,159)">
    Std Dev x
   </text>
   <text fill="black" text-anchor="end" dy=".4em" transform="translate(228,159)">
    1.004
   </text>
   <text fill="black" text-anchor="start" dy=".4em" transform="translate(12,194)">
    Std Dev y
   </text>
   <text fill="black" text-anchor="end" dy=".4em" transform="translate(228,194)">
    0.9972
   </text>
   <path d="M0,35h240" style="stroke: black; stroke-width: 1;"></path>
  </g>
 </g>
</svg>
